X: 1
T: Hit The Road Jack
M:C
L:1/4
Q: 150
K: Eb
G3/4 E/4 |: F2 C3/2 C/2 | E3/4 E/4 F F E | G G c c | e e c G3/4 E/4 |
F2 C3/2 C/2 | E3/4 E/4 F F E | C4 | C3 G3/4 E/4 |[1
C4 | C3 c |  c3/4 B/4 G F3/4 E/4 F | F3/4 E/4 F G E3/4 E/4 | 
_G3/4 G/4 F (4 E/C/C/C/ | E (2 C/C/ C3/2 C/ | E F F E |
^F/2 G3/2 G3/2 E/2 | =F3/4 E/4 F3/4 E/4 F3/4 E/4 C | C c c :|[2 G3/4 E/4